X:7462
T:I Ne'er Shall Wean Her
M:6/8
L:1/8
R:jig
D:Dervish: Midsummer's Night
Z:Devin McCabe
K:AMin
EGG GED|EGG GcB|AcA AGA|cde ecd|
!cde g2a|ged c/2c/2c d|eaa e2d|1cAG A2G:|2cAG A/2A/2A A|
!:egg ged|egg ged|eaa aga|bag a2g|
!cde gc'a|ged c/2c/2c d|eaa (3efe d|1cAG A/2A/2A A:|2cAG A2G||
